X:1
T:8 Lieder und Gesänge, Op.58
T:Serenade
T:8. Serenade
T:Johannes Brahms
T:Adolf Friedrich von Schack
T:8 Lieder und Gesänge, Op.58
T:Creative Commons copyright waiver (CC0 1.0 Universal) 
T:Creative Commons copyright waiver (CC0 1.0 Universal) 
T:Creative Commons copyright waiver (CC0 1.0 Universal) 
T:Creative Commons copyright waiver (CC0 1.0 Universal) 
T:Creative Commons copyright waiver (CC0 1.0 Universal) 
C:Johannes Brahms
Z:Adolf Friedrich von Schack
Z:Creative Commons copyright waiver (CC0 1.0 Universal)
Z:
L:1/8
M:6/8
K:C
V:1 treble nm="Singstimme\nVoice"
V:1
 z6 | z6 | A2 E (cB) A | G2 B A2 G | (FG) A E2 A | c^G A B2 z | d2 A fe d | c2 e d2 c | %8
w: ||Lei- se, um * dich|nicht zu we- cken,|rauscht * der Nacht- wind|teu- * re Frau!|lei- se in * das|Mar- mor- be- cken|
 _Bc d A2 d | e3- e2 ^G | A2 z z2 z | z6 | z6 | z6 | c2 B B2 A | A2 G G2 E | c2 B B2 A | %17
w: giesst * der Brun- nen|sei- * nen|Tau.||||Wie das Was- ser,|nie- der- trop- fend|Krei- se ne- ben|
 A2 ^G G2 z | e2 ^d d2 ^c | (e>^f) (^d/e/) (^c>=d) (B/c/) | (A^G) ^F (A^c) ^f | e2 B ^d2 B | %22
w: Krei- se zieht,|al- so zit- tert|lei- * se * klop- * fend *|mir * das Herz, * das|Herz bei die- sem|
 e2 z z2 z | z6 | z6 | c2 A (ed) c | B2{/d} c B2 A | (^GA) B d2 c | B2 A B2 z | d2 A (fe) d | %30
w: Lied.|||Schwingt euch, Tö- * ne|mei- * Zi- ther,|schwingt * euch auf- wärts,|flü- gel- leicht;|durch das reb- * um-|
 c2 e d2 c | (_Bc) d A2 d | e3- e2 ^G | A2 z z2 z | z6 | z6 | z2 z A2 A || %37
w: kränz- te Git- ter|in * der Schö- nen|Kam- * mer|schleicht.|||"Ist denn,|
[K:F][M:9/8] c3- c2 c{ce} d2 c | c3 A2 z f2 e | d2 c (B3- Bd) B | c2 z z2 z A2 A | %41
w: lieb- * li- * Do-|lo- res", al- so|singt in ih- * * ren|Traum "in der|
 c3- c2 c{ce} d2 c | c3 A2 z f2 e | d2 c (=B3- Bd) B | c2 z e2 d c2 =B | (A3- A=Bc fc) A | %46
w: Mu- * schel dei- nes|Oh- res für kein|Per- len- wört- * * chen|Raum, für kein Per- len-|wört- * * * * * chen|
 c2 z z2 z z2 z | z2 z z2 z A2 A | c3- c2 c{ce} d2 c | c3 A2 z f2 e | d2 c (B3- Bc) d | %51
w: Raum?|O den|Freund * nur ei- ne|Stun- de, wo dein|Arm ihn heiss _ _ um-|
 c2 z z2 z A2 A | c3- c2 c{ce} d2 c | c3 A2 z f2 f | (f3- fA) B f2 _e | d2 z z2 z g2 d | %56
w: schlingt, und der|Kuss _ von dei- nem|Mun- de feu- rig|bis _ _ ans Herz ihm|dringt, feu- rig|
 (c3- cf) g e2 d | c2 z z2 z g2 d | (f3- fc) A c2 E | F2 z z2 z z2 z | z9 | z9 | z9 || %63
w: bis _ _ ans Herz ihm|dringt, feu- rig|bis _ _ ans Herz ihm|dringt.||||
[K:C][M:6/8] A2 E (cB) A | G2 B A2 G | (FG) A E2 A | (c^G) A B2 z | d2 A (fe) d | c2 e d2 c | %69
w: Hast du ihn * so|ganz ver- ges- sen?|Ein- * sam harrt er|am _ Bal- kon,|ü- berm Wip- * fel|der Zy- pres- sen|
 (_Bc) d A2 d | e3- e2 ^G | A2 z z2 z | z6 | z6 | d2 c c2 _B | _B2 A A2 c | f2 e e2 d | %77
w: bleicht _ des Mon- des|Si- * chel|schon.|||Wie das Was- ser|nie- der- trop- fend|Krei- se ne- ben|
 d2 ^c c2 z | ^f2 ^c c2 A | (^f>^e) (f/^c/) (c>B) (c/A/) | A2 =F (f=e) d | c2 A e2 B | c2 z (f3- | %83
w: Krei- se zieht,|al- so zit- tert|lei- * se * klop- * fend *|ihm das Herz, * das|Herz bei die- sem|Lied, ihm|
 f_b) f (d_B) f | e3- e2 ^G | A2 z z2 z | z6 | z6 | z6 | z6 | z6 |] %91
w: * * das Herz * bei|die- * sem|Lied."||||||

